remix/Business/bookmark-2-fill.svg

<svg viewBox="0 0 24 24" fill="currentColor" xmlns="http://www.w3.org/2000/svg"><path d="M5 2H19C19.5523 2 20 2.44772 20 3V22.1433C20 22.4194 19.7761 22.6434 19.5 22.6434C19.4061 22.6434 19.314 22.6168 19.2344 22.5669L12 18.0313L4.76559 22.5669C4.53163 22.7136 4.22306 22.6429 4.07637 22.4089C4.02647 22.3293 4 22.2373 4 22.1433V3C4 2.44772 4.44772 2 5 2ZM8 9V11H16V9H8Z"/></svg>

<svg viewBox="0 0 24 24" xmlns="http://www.w3.org/2000/svg"><path fill="none" d="M0 0h24v24H0Z"/><path d="M5 2h14v0c.55 0 1 .44 1 1v19.143 0c0 .27-.23.5-.5.5 -.1 0-.19-.03-.27-.08l-7.24-4.54 -7.234 4.53h0c-.24.14-.55.07-.69-.16 -.05-.08-.08-.18-.08-.27V2.98v0c0-.56.44-1 1-1Zm3 7v2h8V9H8Z"/></svg>
